X:1
T:Title
%%score ( 1 2 ) 3
L:1/8
Q:1/4=105
M:4/4
K:Ab
V:1 treble nm="Grand Piano, Soprano"
V:2 treble 
V:3 bass nm="Choir Pad, See Him in the Garden Lone"
V:1
 [CE]2 [CE]2 [B,E]2 [C=E]2 | [B,F]2 [B,F]2 [DF]4 | [DB]2 [DB]2 [CA]2 [DG]2 | [CA]4 [CE]4 | %4
w: By~Harry~Sanders * * *||||
 [Ec]2 [Ec]2 [=Ec]2 [EB]2 | [FA]2 [=EG]2 F4 | [DF]2 [DF]2 [FB]2 [FA]2 | G2- [DG]2 [CA]4 | %8
w: ||||
 [DF]3 [DF] [DF]4 | [CE]3 [CA] [CA]4 | [CA]2 [CA]2 [FA]2 F2 | E2 [DG]2 [CA]4- | [CA]4 z4 |] %13
w: |||||
V:2
 x8 | x8 | x8 | x8 | x8 | x8 | x8 | E2 z2 z4 | x8 | x8 | x8 | x8 | x8 |] %13
V:3
 A,2 A,2 [G,B,]2 [G,B,]2 | [F,A,]2 [F,A,]2 [D,A,]4 | [B,,G,]2 [B,,G,]2 [E,A,]2 E,2 | %3
 [A,,E,]4 [A,,A,]4 | A,2 A,2 [G,B,]2 [G,C]2 | [F,C]2 [C,B,]2 [D,B,]4 | %6
 [D,B,]2 [D,A,]2 [=D,F,]2 [D,B,]2 | [E,B,]4 [A,,A,]4 | [D,A,]3 [D,A,] [D,A,]4 | %9
 [A,,A,]3 [A,,E,] [A,,E,]4 | [F,A,]2 [E,A,]2 [D,A,]2 [C,A,]2 | [B,,G,]2 [E,B,]2 [A,,A,]4- | %12
 [A,,A,]4 z4 |] %13

